projectsedona-adaptive/source/img/background/icon-burger.svg

<svg width="40.000000" height="34.900024" viewBox="0 0 40 34.9" fill="none" xmlns="http://www.w3.org/2000/svg" xmlns:xlink="http://www.w3.org/1999/xlink">
	<desc>
			Created with Pixso.
	</desc>
	<defs/>
	<path id="Vector" d="M37.7428 23.3004L2.25722 23.3004C0.997375 23.3004 0 24.3135 0 25.4785L0 27.2513C0 28.4164 0.997375 29.3788 2.25722 29.3788L2.78215 29.3788L2.78215 29.8854C2.78215 32.6713 5.14436 34.9 7.979 34.9L32.021 34.9C34.9081 34.9 37.2178 32.6206 37.2178 29.8854L37.2178 29.3788L37.7428 29.3788C38.9501 29.3788 40 28.4164 40 27.2007L40 25.4279C40 24.3135 39.0026 23.3004 37.7428 23.3004ZM35.6955 29.8854C35.6955 31.8102 34.0682 33.3804 32.0735 33.3804L7.92651 33.3804C5.93176 33.3804 4.30446 31.8102 4.30446 29.8854L4.30446 29.3788L35.6955 29.3788L35.6955 29.8854ZM38.4252 27.2007C38.4252 27.5553 38.1102 27.8593 37.7428 27.8593L2.25722 27.8593C1.88976 27.8593 1.5748 27.5553 1.5748 27.2007L1.5748 25.4279C1.5748 25.1239 1.88976 24.8201 2.25722 24.8201L37.7953 24.8201C38.1627 24.8201 38.4777 25.1239 38.4777 25.4785L38.4777 27.2007L38.4252 27.2007Z" fill="#81B3D2" fill-opacity="1.000000" fill-rule="nonzero"/>
	<path id="Vector" d="M8.50395 19.1973L11.3386 21.2234L14.2257 19.1973L17.1129 21.2234L20 19.1973L22.8347 21.2234L25.7218 19.1973L28.6089 21.2234L31.4961 19.1973L34.3832 21.2234L37.6903 18.8427L36.7979 17.6271L34.3832 19.2986L31.4961 17.2725L28.6089 19.2986L25.7218 17.2725L22.8347 19.2986L20 17.2725L17.1129 19.2986L14.2257 17.2725L11.3386 19.2986L8.50395 17.2725L5.61681 19.2986L3.20211 17.6271L2.25723 18.8427L5.61681 21.2234L8.50395 19.1973Z" fill="#81B3D2" fill-opacity="1.000000" fill-rule="nonzero"/>
	<path id="Vector" d="M37.2179 15.7532C37.2179 15.4492 37.2704 14.4362 37.2179 14.2335C36.8504 6.33167 29.2913 0 20 0C10.7087 0 3.09712 6.33167 2.72967 14.2335C2.72967 14.4362 2.72967 15.4492 2.72967 15.7532L37.2179 15.7532ZM20 1.51965C28.399 1.51965 35.3281 7.19275 35.6431 14.2335L4.30447 14.2335C4.67192 7.19275 11.6011 1.51965 20 1.51965Z" fill="#81B3D2" fill-opacity="1.000000" fill-rule="nonzero"/>
	<path id="Vector" d="M21.0499 7.59802C21.0499 8.15747 20.5798 8.61108 20 8.61108C19.4202 8.61108 18.9501 8.15747 18.9501 7.59802C18.9501 7.03857 19.4202 6.58496 20 6.58496C20.5798 6.58496 21.0499 7.03857 21.0499 7.59802Z" fill="#81B3D2" fill-opacity="1.000000" fill-rule="evenodd"/>
	<path id="Vector" d="M16.8504 5.1156C16.8504 5.67505 16.3804 6.12866 15.8005 6.12866C15.2207 6.12866 14.7507 5.67505 14.7507 5.1156C14.7507 4.55615 15.2207 4.10254 15.8005 4.10254C16.3804 4.10254 16.8504 4.55615 16.8504 5.1156Z" fill="#81B3D2" fill-opacity="1.000000" fill-rule="evenodd"/>
	<path id="Vector" d="M25.2493 5.1156C25.2493 5.67505 24.7793 6.12866 24.1995 6.12866C23.6196 6.12866 23.1496 5.67505 23.1496 5.1156C23.1496 4.55615 23.6196 4.10254 24.1995 4.10254C24.7793 4.10254 25.2493 4.55615 25.2493 5.1156Z" fill="#81B3D2" fill-opacity="1.000000" fill-rule="evenodd"/>
</svg>

<svg xmlns="http://www.w3.org/2000/svg" width="40" height="34.9" fill="none" viewBox="0 0 40 34.9">
  <path fill="#81B3D2" d="M37.74 23.3H2.26A2.23 2.23 0 0 0 0 25.48v1.77c0 1.17 1 2.13 2.26 2.13h.52v.5a5.12 5.12 0 0 0 5.2 5.02h24.04c2.89 0 5.2-2.28 5.2-5.01v-.51h.52c1.21 0 2.26-.96 2.26-2.18v-1.77c0-1.12-1-2.13-2.26-2.13Zm-2.04 6.59a3.57 3.57 0 0 1-3.63 3.49H7.93c-2 0-3.63-1.57-3.63-3.5v-.5h31.4v.5Zm2.73-2.69c0 .36-.32.66-.69.66H2.26a.68.68 0 0 1-.69-.66v-1.77c0-.3.32-.61.69-.61H37.8c.36 0 .68.3.68.66v1.72h-.05Zm-29.93-8 2.84 2.02 2.89-2.02 2.88 2.02L20 19.2l2.83 2.02 2.9-2.02 2.88 2.02 2.89-2.02 2.88 2.02 3.31-2.38-.9-1.21-2.4 1.67-2.9-2.03-2.88 2.03-2.89-2.03-2.89 2.03L20 17.27l-2.89 2.03-2.88-2.03-2.9 2.03-2.83-2.03-2.88 2.03-2.42-1.67-.94 1.21 3.36 2.38L8.5 19.2Zm28.72-3.45c0-.3.05-1.31 0-1.52C36.85 6.33 29.29 0 20 0 10.7 0 3.1 6.33 2.73 14.23v1.52h34.49ZM20 1.52c8.4 0 15.33 5.67 15.64 12.71H4.3C4.67 7.2 11.6 1.52 20 1.52Z"/>
  <path fill="#81B3D2" fill-rule="evenodd" d="M21.05 7.6c0 .56-.47 1.01-1.05 1.01-.58 0-1.05-.45-1.05-1.01s.47-1.02 1.05-1.02c.58 0 1.05.46 1.05 1.02Zm-4.2-2.48c0 .56-.47 1-1.05 1-.58 0-1.05-.44-1.05-1s.47-1.02 1.05-1.02c.58 0 1.05.46 1.05 1.02Zm8.4 0c0 .56-.47 1-1.05 1-.58 0-1.05-.44-1.05-1s.47-1.02 1.05-1.02c.58 0 1.05.46 1.05 1.02Z"/>
</svg>
